X:1
T:Title
%%score { ( 1 2 5 ) | ( 3 4 ) }
L:1/8
M:4/4
K:Eb
V:1 treble nm="Grand Piano"
V:2 treble 
V:5 treble 
V:3 bass 
V:4 bass 
V:1
 z4 z2[Q:1/4=100] z F | [B,EG]2 [EGB]2 [EGB]2 .[EGB]2 | [EGB]2 [Ge]2 [GB]2 z G | %3
 [EB]2 [EB]2 .[DB]2 .[B,DB]2 |[M:3/4] [EG]6 |[M:1/4] [B,GB]2 |[M:4/4] [Ad]2 [Ad]2 dc[AB]A | %7
 [Gc]2 [Gc]2 cBGE | F2 Bd e2 =A2 |[M:3/4] [B,DB]6 |[M:1/4] z2 |[M:4/4] [Af]4 z4 | G-[Gc]Bc B2 B2 | %13
 [Af]4 z4 |[M:3/4] [GB]6 |[M:1/4] B2 |[M:4/4] e2 dc B2 G2 | %17
[M:9/8] E2 F- F [G,=B,DG]2- [G,B,DG] [G,B,DG]2 |[M:4/4] .[CF]2 .[CB]2 [B,DG]2 [A,DF]2 | %19
[M:3/4] [G,E]6 |[M:1/4] z2 |[M:4/4] [Ad]4 z4 | [Gc]4 z4 | [Bd]4 z4 |[M:3/4] [Gc]4 z2 |[M:1/4] B2 | %26
[M:4/4] eeee B2 =B2 |[M:5/4] cccc [A,CEF]3 [Ed]3 |[M:4/4] BEGA B2 [Ad]2 |[M:3/4] [Ge]6 |] %30
V:2
 z4 z2 E2 | x8 | z4 z2 E2 | x8 |[M:3/4] B,2 B,2 B,2 |[M:1/4] x2 |[M:4/4] z4 A2 z2 | z4 G2 z2 | x8 | %9
[M:3/4] x6 |[M:1/4] x2 |[M:4/4] z2 z e [Ad]2 [Ac]2 | .B2 z2 z4 | z2 z e [Ad]2 [Ac]2 | %14
[M:3/4] z2 [B,E]2 [B,E]2 |[M:1/4] x2 |[M:4/4] x8 |[M:9/8] x9 |[M:4/4] x8 |[M:3/4] x6 |[M:1/4] x2 | %21
[M:4/4] z2 z c [AB]2 [B,A]2 | z2 z B G2 [EGB]2 | z2 z c [AB]2 [B,A]2 |[M:3/4] z2 z B G2 | %25
[M:1/4] x2 |[M:4/4] x8 |[M:5/4] x10 |[M:4/4] x8 |[M:3/4] x6 |] %30
V:3
 z4 z2 G,A, | E,2 E,2 E,2 z[K:treble] c | E,2 [E,B,]2 [E,B,]2 G,B, | %3
 [B,,G,]2 [B,,G,]2 z[K:treble] c[K:bass] z A |[M:3/4] E,2 E,2 E,2 |[M:1/4] E,2 | %6
[M:4/4] [B,,B,]2 [B,,B,]2 [B,,B,]2 [B,,B,]2 | [E,B,]2 [E,E]2 [E,E]2 .[E,B,E]2 | %8
 [F,B,D]2 [F,B,D]2 [F,A,F]2 [F,CE]2 |[M:3/4] B,,6 |[M:1/4][K:treble] B2 | %11
[M:4/4][K:bass] B,,2 z A [F,B,D]2 [F,B,D]2 | E,2[K:treble] [G,B,EG]2 [G,B,EG]2 [G,B,EG]2 | %13
 B,,2 z A [F,B,D]2 [F,B,D]2 |[M:3/4] E,2 G,2 G,2 |[M:1/4] B,2 |[M:4/4][K:treble] E2 DC B,2 G,2 | %17
[M:9/8][K:bass] E,2 F,- F, G,,2- G,, G,,2 |[M:4/4] z[K:treble] c[K:bass] z A B,,2 B,,2 | %19
[M:3/4] E,6 |[M:1/4][K:treble] B2 |[M:4/4][K:bass] B,,2 z A B,,2 F,2 | z2 B,2 z4 | %23
 B,,2 z A B,,2 F,2 |[M:3/4] z2 B,2 z2 |[M:1/4] B,2 |[M:4/4][K:treble] EEEE B,2 =B,2 | %27
[M:5/4] CCCC[K:bass] A,,3 [=A,,_G,]3 |[M:4/4] [G,E]E,G,A, B,2 [B,,B,]2 |[M:3/4] [E,B,]6 |] %30
V:4
 z4 z2 E,2 | z4 z2 E,2[K:treble] | z4 z2 E,2 | z4 [B,,A,]2[K:treble][K:bass] B,,2 |[M:3/4] x6 | %5
[M:1/4] x2 |[M:4/4] x8 | x8 | x8 |[M:3/4] x6 |[M:1/4][K:treble] x2 |[M:4/4][K:bass] z2 F,2 z4 | %12
 x2[K:treble] x6 | z2 F,2 z4 |[M:3/4] x6 |[M:1/4] x2 |[M:4/4][K:treble] x8 |[M:9/8][K:bass] x9 | %18
[M:4/4] A,,2[K:treble][K:bass] A,,2 z4 |[M:3/4] x6 |[M:1/4][K:treble] x2 | %21
[M:4/4][K:bass] z2 F,2 z4 | E,2 z G E,2 B,2 | z2 F,2 z4 |[M:3/4] E,2 z G E,2 |[M:1/4] x2 | %26
[M:4/4][K:treble] x8 |[M:5/4] x4[K:bass] x6 |[M:4/4] x8 |[M:3/4] x6 |] %30
V:5
 x8 | x8 | x8 | x8 |[M:3/4] x6 |[M:1/4] x2 |[M:4/4] x8 | x8 | x8 |[M:3/4] x6 |[M:1/4] x2 | %11
[M:4/4] z2 [B,D]2 z4 | x8 | z2 [B,D]2 z4 |[M:3/4] x6 |[M:1/4] x2 |[M:4/4] x8 |[M:9/8] x9 | %18
[M:4/4] x8 |[M:3/4] x6 |[M:1/4] x2 |[M:4/4] z2 B,2 z4 | z2 E2 z4 | z2 B,2 z4 |[M:3/4] z2 E2 z2 | %25
[M:1/4] x2 |[M:4/4] x8 |[M:5/4] x10 |[M:4/4] x8 |[M:3/4] x6 |] %30

